material/.icons/material/account-clock-outline.svg

<svg xmlns="http://www.w3.org/2000/svg" viewBox="0 0 24 24"><path d="M16 14h1.5v2.82l2.44 1.41-.75 1.3L16 17.69V14m1-2a5 5 0 00-5 5 5 5 0 005 5 5 5 0 005-5 5 5 0 00-5-5m0-2a7 7 0 017 7 7 7 0 01-7 7c-2.79 0-5.2-1.64-6.33-4H1v-3c0-2.66 5.33-4 8-4 .6 0 1.34.07 2.12.2A6.992 6.992 0 0117 10m-7 7c0-.7.1-1.38.29-2-.42-.07-.86-.1-1.29-.1-2.97 0-6.1 1.46-6.1 2.1v1.1h7.19A6.71 6.71 0 0110 17M9 4a4 4 0 014 4 4 4 0 01-4 4 4 4 0 01-4-4 4 4 0 014-4m0 1.9A2.1 2.1 0 006.9 8 2.1 2.1 0 009 10.1 2.1 2.1 0 0011.1 8 2.1 2.1 0 009 5.9z"/></svg>

<?xml version="1.0" encoding="UTF-8"?><!DOCTYPE svg PUBLIC "-//W3C//DTD SVG 1.1//EN" "http://www.w3.org/Graphics/SVG/1.1/DTD/svg11.dtd"><svg xmlns="http://www.w3.org/2000/svg" xmlns:xlink="http://www.w3.org/1999/xlink" version="1.1" id="mdi-account-clock-outline" width="24" height="24" viewBox="0 0 24 24"><path d="M16,14H17.5V16.82L19.94,18.23L19.19,19.53L16,17.69V14M17,12A5,5 0 0,0 12,17A5,5 0 0,0 17,22A5,5 0 0,0 22,17A5,5 0 0,0 17,12M17,10A7,7 0 0,1 24,17A7,7 0 0,1 17,24C14.21,24 11.8,22.36 10.67,20H1V17C1,14.34 6.33,13 9,13C9.6,13 10.34,13.07 11.12,13.2C12.36,11.28 14.53,10 17,10M10,17C10,16.3 10.1,15.62 10.29,15C9.87,14.93 9.43,14.9 9,14.9C6.03,14.9 2.9,16.36 2.9,17V18.1H10.09C10.03,17.74 10,17.37 10,17M9,4A4,4 0 0,1 13,8A4,4 0 0,1 9,12A4,4 0 0,1 5,8A4,4 0 0,1 9,4M9,5.9A2.1,2.1 0 0,0 6.9,8A2.1,2.1 0 0,0 9,10.1A2.1,2.1 0 0,0 11.1,8A2.1,2.1 0 0,0 9,5.9Z" /></svg>
